X:1
T:Title
%%score { ( 1 3 ) | ( 2 4 ) }
L:1/8
Q:1/4=100
M:6/8
K:F
V:1 treble nm="Grand Piano"
V:3 treble 
V:2 bass 
V:4 bass 
V:1
 c=Bc A3 | A_A=A F3 | FFF FGA | [EG]3 [Ec]3 | c=Bc A3 | A_A=A F3 | FFF FGA |[M:5/8] [EG]3 z2 | %8
w: C.~D.~Amstutz * * *||||||||
[M:1/8] [Ec] |[M:3/4] [EB][EA] [EG]A AA | F3 F2 F | EE EF GA | [EG]4- [EG][Ec] | %13
w: |||||
 [EB][EA] [EG]A AA | F3 [DFB]2 [Fd] | [Fc][A,F] [B,FG][CFA]/[CFA]/- [CFA][B,EG] | %16
w: |||
[M:5/8] [A,F]-[A,F]- [A,F]3 |] %17
w: |
V:2
 [F,A,F][F,_A,F][F,=A,F] [F,CF]3 | [F,CF][F,=B,F][F,CF] [F,A,]3 | %2
 [B,D][B,D][B,D] [A,C][G,CE][F,CF] | [C,C]3 [C,B,]3 | [F,A,F][F,_A,F][F,=A,F] [F,CF]3 | %5
 [F,CF][F,=B,F][F,CF] [F,A,]3 | [B,D][B,D][B,D] [A,C][G,CE][F,CF] |[M:5/8] C2 z [F,A,]2 | %8
[M:1/8] [C,C] |[M:3/4] [C,C][C,C] [C,C][F,CF] [F,CF][F,CF] | [D,D]3 [D,D]2 [D,D] | %11
 [G,C][G,C] [G,C][A,C] [G,CE][F,CF] | [C,C]4- [C,C][C,C] | [C,C][C,C] [C,C][F,CF] [F,CF][F,CF] | %14
 [D,D]3 B,,2 [B,,B,] | [C,A,]C, C,C,/C,/- C,C, |[M:5/8] F,-F,- F,3 |] %17
V:3
 x6 | x6 | x6 | x6 | x6 | x6 | x6 |[M:5/8] z2 B, F2 |[M:1/8] x |[M:3/4] x6 | x6 | x6 | x6 | x6 | %14
 x6 | x6 |[M:5/8] x5 |] %17
V:4
 x6 | x6 | x6 | x6 | x6 | x6 | x6 |[M:5/8] C,3 z2 |[M:1/8] x |[M:3/4] x6 | x6 | x6 | x6 | x6 | x6 | %15
 x6 |[M:5/8] x5 |] %17

